X:1
T:Title
%%score { ( 1 3 4 ) | ( 2 5 ) }
L:1/8
Q:1/4=90
M:6/8
K:C
V:1 treble nm="Grand Piano"
V:3 treble 
V:4 treble 
V:2 bass 
V:5 bass 
V:1
 [EG][EG][EG] [EG]2 E | EDE F3 | BBB d2 B | [Ec][CE][FA] [EG]3 | [Ge][Ge][Ge] [Ec]2 [Gc] | %5
w: Powell~G.~Fithian * * * *|||||
 dcA c2 A | GGG c2 c | Bcd [Ec]3 | .G6 | F6 | B-[FB-][FB-] BA[FB] | [Ec][_EB][EA] [=EG]2 [EG] | %12
w: |||||||
 [Ec][Ec][Ec] [Ge][Gd][Gc] | AAA [^Fd]2 [Fc] | z GB Bcd | c6 |] %16
w: ||||
V:2
 [C,G,][C,G,][C,G,] [C,G,]2 [C,G,C] | [G,C][G,B,][K:treble][G,C] [G,D]3 | %2
 [G,DF][G,DF][G,DF] [G,B,F]2 [G,DF] | [C,C][C,G,][C,C] [C,C]3 | [C,C][C,C][C,C] [C,G,]2 [E,_B,] | %5
 [F,A,F][F,A,F][F,CF] [F,A,F]2 [F,CF] | [G,CE][G,CE][G,CE] [G,E]2 [G,E] | %7
 [G,D][G,E][G,B,F][K:bass] [C,C]3 | [C,G,][C,G,][C,G,] [C,G,]2 [C,G,C] | %9
 [D,G,B,][D,G,][D,G,] .[D,G,]3 | [G,,G,][G,,G,][G,,G,] [G,,G,]2 [G,,G,] | %11
 [C,G,][C,^F,][C,F,] [C,G,]2 [C,G,] | [C,G,][C,G,][C,G,] [C,C][D,B,][E,C] | %13
 [F,CF][F,CF][F,CF] [D,C]2 [D,D] | [G,DG][G,D][G,DG] [G,DG][G,A,^F][G,B,=F] | z G,A, .G,3 |] %16
V:3
 x6 | x6 | x6 | x6 | x6 | x6 | x6 | x6 | EEE z AE | z B,B, .B,3 | .F3 .F3 | x6 | x6 | x6 | .B3 z3 | %15
 .[CE]2 F .E3 |] %16
V:4
 x6 | x6 | x6 | x6 | x6 | x6 | x6 | x6 | z3 .E3 | x6 | x6 | x6 | x6 | x6 | x6 | x6 |] %16
V:5
 x6 | x2[K:treble] x4 | x6 | x6 | x6 | x6 | x6 | x3[K:bass] x3 | x6 | x6 | x6 | x6 | x6 | x6 | x6 | %15
 C,6 |] %16

